!!!!SEGMENT: pl-wtm--r-730-8-m_moniuszko-stanislaw--tam-na-piaskach-stoi-chatka.krn
!!!cenid: 18xx:1688
!!!COM: Moniuszko, Stanisław
!!!COM-rismID: pe30008351
!!!CDT: 1819/05/05-1872/06/04
!!!CNT: Polish
!!!OTL: Tam na piaskach stoi chatka
!!!PDT:
!!!AGN: Secular
!!!SMS-siglum: PL-Wtm
!!!SMS-shelfmark: R 730/8/M
!!!SMS-shelfwork: W
!!!SMS-variant:
!!!SMS-altvar:
!!!NIFC-rismSourceID: 1001099781
!!!NIFC-rismChildID: 1001099781
!!!NIFC-islandoraID:
!!!URL-pdf-islandora:
!!!URL-scan:
!!!IIIF:
!!!ONB-nifc: Skan 0015. No. 760
!!!AIN: 2 forte 1 vox
!!!key:
**kern	**kern	**dynam	**kern	**text
*part3	*part2	*part2	*part1	*part1
*staff3	*staff2	*	*staff1	*staff1
*Iforte	*Iforte	*	*Ivox	*
*I"Fortepian	*I"Fortepian	*	*I"[Voice]	*
*I'pf	*I'pf	*	*I'[V]	*
*>[A,B,A]	*>[A,B]	*	*>[A,B,A]	*
*clefF4	*clefG2	*	*clefG2	*
*k[b-]	*k[b-]	*	*k[b-]	*
*d:	*d:	*	*d:	*
*M3/4	*M3/4	*	*M3/4	*
=1	=1	=1	=1	=1
*>A	*>A	*	*>A	*
*	*^	*	*	*
!	!	!	!LO:DY:b:t=p.:rj	!	!
!	!	!	!LO:HP:b	!	!
4c#X 4A 4D\	8ee/L	4g\	p >	2.r	.
.	8ff/J	.	.	.	.
*2\right	*	*2\right	*	*	*
2d 2A 2D\	2dd/	2f\	.	.	.
=2	=2	=2	=2	=2	=2
!LO:SIC:s:v=c#	!	!	!	!	!
4c 4A 4D\	8a/L	4g\	.	4r	.
.	8a/J	.	.	.	.
2d 2A 2D\	2a;>/	2f\	.	4r;>	.
!	!LO:TX:b:t=fine	!	!	!	!
.	.	.	]	4r	.
*	*v	*v	*	*	*
=3||	=3||	=3||	=3||	=3||
*>B	*>B	*	*>B	*
!	!	!LO:DY:b:t=pp.	!	!
4d 4D\	4a 4f/	pp	8f/	Tam
.	.	.	8f/	na
4d 4F\	4a 4f/	.	4f/	pia-
4d 4D\	4a 4f/	.	4f/	-skach
=4	=4	=4	=4	=4
4d 4G\	4b- 4g/	.	8f/	sto-
.	.	.	8f/	-i
4d 4B-\	4b- 4g/	.	4f/	chat-
4d 4B-\	4b- 4g/	.	4f/	-ka
=5	=5	=5	=5	=5
4c#X 4A\	4a 4g/	.	8f/	a
.	.	.	8f/	w niey
!	!	!LO:HP:b	!	!
4c# 4A\	(<4a 4f/	>	4.f/	smu-
4A\	4g 4e/)	]	.	.
.	.	.	8e/	-tno
=6	=6	=6	=6	=6
4A 4D\	8gL 8e/	.	8e/	jak-
.	8fJ 8d/	.	8d/	-by
4A 4D\	4e 4c#X/	.	4c#X/	w gro-
4A 4D\	4f 4d/	.	4d/	-bie
=7	=7	=7	=7	=7
*	*^	*	*	*
!	!	!	!LO:HP:b	!	!
4F\	8cc/L	4a\	>	8a/	po-
.	8cc#X/J	.	.	8a/	-sród
4F\	4dd/	4a\	.	4a/	chat-
4F\	4ccn/	4a\	.	4a/	-ki
!!LO:LB:g=original
=8	=8	=8	=8	=8	=8
4G\	4b-/	4g\	.	8a/	klę-
.	.	.	.	8a/	-czy
4G\	4dd/	4b-\	.	4.a/	mat-
4G\	4dd/	4b-\	.	.	.
.	.	.	]	8g/	-ka
=9	=9	=9	=9	=9	=9
!	!	!	!LO:DY:b:t=pp.:rj	!	!
4A\	4cc#X/	8a\L	pp	8f/	krzyż,
.	.	8g#X\J	.	8e/	.
4A\	4cc#/	4gn\	.	4e/	uię-
4G\ 4GG\	4cc#/	4e\	.	4e/	-ła
=10	=10	=10	=10	=10	=10
4F 4D\	4dd/	4f\	.	8d/	w dło-
.	.	.	.	8e/	-nie
4d\	4r	4r	.	4f/	o-
4c\	4cc/	4b- 4e\	.	4g/	-bie
=11	=11	=11	=11	=11	=11
!	!	!	!LO:HP:b	!	!
4F\	8cc/L	4a 4f\	>	8a/	po-
.	8cc#X/J	.	.	8a/	-śród
4F\	4dd/	4a\	.	4a/	chat-
4F\	4ccn/	4a\	.	4a/	-ki
=12	=12	=12	=12	=12	=12
4G\	4b-/	4g\	.	8a/	klę-
.	.	.	.	8a/	-czy
4G\	4dd/	4b-\	.	4.a/	mat-
4G\	4dd/	4b-\	.	.	.
.	.	.	]	8g/	-ka
=13	=13	=13	=13	=13	=13
!	!	!	!LO:DY:b:t=p.:rj	!	!
4A\	4cc#X/	8a\L	p	8f/	krzyż
.	.	8g#X\J	.	8e/	.
4A\	4cc#/	4gn\	.	8e/	uię-
.	.	.	.	8g/	-ła
4G\ 4GG\	4cc#/	4g 4e\	.	8f/	w dło-
.	.	.	.	8e/	-nie
=14	=14	=14	=14	=14	=14
8A 8D\	8dd/	8f 8d\	.	8d/	obie.
!	!	!	!LO:DY:b:t=p.:rj	!	!
8r	8r	(>8A\L	p	8r	.
4r	4r	8d\	.	4r	.
.	.	8f\	.	.	.
!	!LO:TX:b:t=D&colon; C&colon; al fine.	!	!	!	!
4r	4r	8a\	.	4r	.
.	.	8dd\J)	.	.	.
*	*v	*v	*	*	*
==	==	==	==	==
*-	*-	*-	*-	*-
!!!system-decoration: {(s1),(s2,s3)}
!!!RDF**kern: > = above
!!!RDF**kern: < = below
!!!EED: Antoni Szymański
!!!EEV: 2021-04-22
!!!ENC: Marcin Jachim
!!!END: 2021-04-02
!!!YEC: Copyright 2022 Narodowy Instytut Fryderyka Chopina (https://polishscores.org)
!!!YEM: License CC-BY-4.0 (https://creativecommons.org/licenses/by/4.0)
